X:111
T:Cheerily Man (Sharp)
M:3/4
L:1/4
K:G
(d2  A)| B c A | G3 | E F G | c d B |(A>B c)|
 B A G | B c d | d3 | c B A |(A>B c)| B A G ||
